X:1
T:Title
%%score { 1 | 2 }
L:1/8
Q:1/4=100
M:4/4
K:Bb
V:1 treble nm="Grand Piano"
V:2 bass 
V:1
 [DF]>[DG] [DG]>[DG] [DG]2 [DF]2 | [Fd]>[Fd] [Fd]>[Fd] [Fe]4 | F>G G>G G2 F2 | c>c c>c d4 | %4
w: E.~S.~Lorenz * * * * *||||
 [Bd]>[Bd] [Ac]>[GB] [GB]2 [^FA]2 | G>G G>[FA] [GB]4 | [Gc]>[Gc] [GB]>G F>F B>e | d2 c2 [DB]4 | %8
w: ||||
 d>d d>d d2 F2 | [Ec]>[DB] [CA]>[DB] [EA]4 | e>e e>e e2 c2 | d>c A>e d4 | d>d d>d d2 F2 | %13
w: |||||
 [Ge]>[Fd] [Ec]>[DB] G4 | c>c B>G F>F B>e | d2 c2 [DB]4 |] %16
w: |||
V:2
 [B,,B,]>[B,,B,] [B,,B,]>[B,,B,] [B,,B,]2 [B,,B,]2 | [B,,B,]>[B,,B,] [B,,B,]>[B,,B,] [C,A,]4 | %2
 [F,A,E]>[F,A,E] [F,A,E]>[F,A,E] [F,A,E]2 [F,A,E]2 | %3
 [F,A,E]>[F,A,E] [F,A,E]>[F,A,E][K:treble] [B,F]4 | [G,D]>[G,D] [G,D]>[G,D][K:bass] [D,D]2 [D,C]2 | %5
 [E,B,]>[E,B,E] [E,B,E]>[E,B,] [E,E]4 | [E,E]>[E,E] [E,E]>[E,B,E] [F,B,D]>[F,B,D] [F,B,D]>[F,B,G] | %7
 [F,A,F]2 [F,E]2 [B,,F,]4 | [B,F]>[B,F] [B,F]>[B,F] [B,F]2[K:bass] [B,D]2 | %9
 [B,,F,]>[B,,F,] [B,,F,]>[B,,F,] [C,F,]4 | [F,CF]>[F,CF] [F,CF]>[F,CF] [F,CF]2 [F,A,F]2 | %11
 [F,A,F]>[F,A,F] [F,CF]>[F,CF] [B,F]4 | [B,F]>[B,F] [B,F]>[B,F] [B,F]2[K:bass] [B,D]2 | %13
 [B,,B,]>[B,,B,] [B,,B,]>[B,,B,] [E,B,E]4 | %14
 [E,G,E]>[E,G,E] [E,G,E]>[E,B,E] [F,B,D]>[F,B,D] [F,B,D]>[F,B,G] | [F,A,F]2 [F,E]2 [B,,F,]4 |] %16

